public/alergenos/mostaza.svg

<?xml version="1.0" encoding="UTF-8" standalone="no"?>
<!-- Created with Inkscape (http://www.inkscape.org/) -->

<svg
   xmlns:dc="http://purl.org/dc/elements/1.1/"
   xmlns:cc="http://creativecommons.org/ns#"
   xmlns:rdf="http://www.w3.org/1999/02/22-rdf-syntax-ns#"
   xmlns:svg="http://www.w3.org/2000/svg"
   xmlns="http://www.w3.org/2000/svg"
   xmlns:sodipodi="http://sodipodi.sourceforge.net/DTD/sodipodi-0.dtd"
   xmlns:inkscape="http://www.inkscape.org/namespaces/inkscape"
   width="262.20471"
   height="372.04724"
   id="svg4209"
   version="1.1"
   inkscape:version="0.48.5 r10040"
   sodipodi:docname="IconoAlergenoMostaza-Mustard.svg">
  <defs
     id="defs4211" />
  <sodipodi:namedview
     id="base"
     pagecolor="#ffffff"
     bordercolor="#666666"
     borderopacity="1.0"
     inkscape:pageopacity="0.0"
     inkscape:pageshadow="2"
     inkscape:zoom="0.22265811"
     inkscape:cx="202.74286"
     inkscape:cy="380.3158"
     inkscape:document-units="px"
     inkscape:current-layer="layer1"
     showgrid="false"
     inkscape:window-width="1280"
     inkscape:window-height="924"
     inkscape:window-x="0"
     inkscape:window-y="28"
     inkscape:window-maximized="1" />
  <metadata
     id="metadata4214">
    <rdf:RDF>
      <cc:Work
         rdf:about="">
        <dc:format>image/svg+xml</dc:format>
        <dc:type
           rdf:resource="http://purl.org/dc/dcmitype/StillImage" />
        <dc:title></dc:title>
      </cc:Work>
    </rdf:RDF>
  </metadata>
  <g
     inkscape:label="Capa 1"
     inkscape:groupmode="layer"
     id="layer1"
     transform="translate(0,-680.31494)">
    <g
       id="g5086"
       transform="matrix(5.4836896,0,0,5.4836896,-1151.2895,-1136.0193)">
      <text
         sodipodi:linespacing="125%"
         id="text4050-3-4"
         y="390.77377"
         x="220.21173"
         style="font-size:15px;font-style:normal;font-weight:normal;line-height:125%;letter-spacing:0px;word-spacing:0px;fill:#000000;fill-opacity:1;stroke:none;font-family:Sans"
         xml:space="preserve"><tspan
           style="font-size:5.5px"
           y="390.77377"
           x="220.21173"
           id="tspan4052-1-4"
           sodipodi:role="line">MOSTAZA</tspan></text>
      <g
         transform="translate(-1.3223836e-5,0)"
         id="g5075">
        <path
           sodipodi:type="arc"
           style="fill:#c09328;fill-opacity:1;stroke:#c09328;stroke-width:0.40000001;stroke-linecap:round;stroke-linejoin:round;stroke-miterlimit:4;stroke-opacity:1;stroke-dasharray:none;stroke-dashoffset:0"
           id="path3230-0-5-2"
           sodipodi:cx="21.573027"
           sodipodi:cy="29.287827"
           sodipodi:rx="18.363815"
           sodipodi:ry="18.720394"
           d="m 39.936842,29.287827 c 0,10.338988 -8.22176,18.720394 -18.363815,18.720394 -10.142055,0 -18.3638157,-8.381406 -18.3638157,-18.720394 0,-10.338989 8.2217607,-18.720395 18.3638157,-18.720395 10.142055,0 18.363815,8.381406 18.363815,18.720395 z"
           transform="matrix(1.1313496,0,0,1.1098002,209.44903,327.94054)" />
        <g
           id="g5066">
          <path
             inkscape:connector-curvature="0"
             id="path4377"
             d="m 231.23733,348.81192 7.68979,7.68979 9.81111,-9.8995 -1.85616,-1.85615 -2.43068,-1.85616 -2.12132,-1.23744 -1.45841,-0.7071 -1.41421,-0.35356 z"
             style="fill:#000000;fill-opacity:0;stroke:#000000;stroke-width:0.05;stroke-linecap:round;stroke-linejoin:round;stroke-miterlimit:4;stroke-opacity:0;stroke-dasharray:none" />
          <g
             transform="translate(-189.27023,332.14547)"
             id="g4371">
            <g
               id="g4365">
              <path
                 sodipodi:nodetypes="ccccccccccccccccccccccccccccccccccccccccccccccccccccccccccccccccccccccccccccccccccccc"
                 inkscape:connector-curvature="0"
                 id="path4361"
                 d="m 435.0625,39.887497 c -0.11457,-0.291672 -0.17544,-0.611662 -0.34375,-0.871094 l -0.5,-0.472656 -0.84375,-0.5625 -1.03125,-0.40625 -1.46875,-0.40625 -1.21875,-0.21875 -1.625,-0.125 -1,0.0625 -1.21875,0.4375 -1.375,0.5 -1.0625,0.1875 -1.6875,0.03125 -1.28125,-0.15625 -1.34375,-0.21875 -1.3125,-0.1875 -1.15625,-0.09375 -1.375,-0.15625 -1.34375,0.0625 -0.125,-0.375 -0.1875,-0.84375 0.0937,-0.625 0.15625,-0.21875 0.9375,-0.59375 0.875,-0.8125 0.40625,-0.59375 0.0313,-0.8125 -0.0625,-0.78125 -0.125,-0.5625 -0.1875,-0.5 0,-0.5 0.34375,-0.34375 0.5625,-0.21875 0.5625,-0.3125 0.4375,-0.4375 0.375,-0.59375 0.1875,-0.625 0.21875,-0.40625 -0.0625,-0.34375 -0.4375,-0.40625 -0.40625,0 -0.3125,0.1875 -0.25,0.53125 -0.21875,0.59375 -0.25,0.40625 -0.59375,0.28125 -0.6875,0.28125 -0.46875,0.5 -0.3125,0.625 -0.0313,0.65625 0.1875,0.78125 0.15625,0.78125 0.125,0.59375 -0.125,0.34375 -0.5625,0.4375 -0.46875,0.375 -0.53125,0.375 -0.375,0.3125 -0.3125,0.5625 -0.1875,0.84375 0.0625,0.90625 0.125,0.5 0.0937,0.46875 -0.71875,0.28125 -0.71875,0.5625 -0.375,0.5625 -0.1875,0.78125 0.21875,0.84375 0.71875,0.8125 1.09375,1 1.0625,0.59375 1.34375,0.5 1.28125,0.28125 2.03125,0.21875 2.1875,0.125 2.53125,0.21875 2.25,-0.0625 2.1875,-0.1875 1.71875,-0.3125 1.59375,-0.4375 1.65625,-0.71875 1.25,-0.71875 0.90625,-0.84375 0.4375,-0.6875 0.0664,-0.640625"
                 style="fill:#ffffff;stroke:#ffffff;stroke-width:0.05;stroke-linecap:round;stroke-linejoin:round;stroke-miterlimit:4;stroke-opacity:1;stroke-dasharray:none" />
              <path
                 inkscape:connector-curvature="0"
                 id="path4363"
                 d="m 428.79397,42.420604 0.83969,-0.154679 0.64082,-0.176777 0.82864,-0.342505 0.55242,-0.298311 0.41985,-0.254116 0.3425,-0.254117 0.3867,-0.342504 0.28726,-0.397748 0.23202,-0.475087 0.0884,-0.386699 0.0111,-0.265165 -0.0111,-0.110486 0.16573,0.220971 0.12153,0.298311 0.0442,0.243068 -0.0331,0.287262 -0.0552,0.220971 -0.11049,0.220971 -0.16572,0.254116 -0.17678,0.209922 -0.32041,0.243068 -0.33145,0.265165 -0.35356,0.23202 -0.46404,0.29831 -0.28726,0.165729 -0.32041,0.143631 -0.35355,0.110485 -0.35355,0.121534 -0.33146,0.03315 -0.37565,0.0221 -0.37565,-0.03315 -0.24307,-0.0221 z"
                 style="fill:#c09328;fill-opacity:1;stroke:#c09328;stroke-width:0.05;stroke-linecap:round;stroke-linejoin:round;stroke-miterlimit:4;stroke-opacity:1;stroke-dasharray:none" />
            </g>
            <path
               style="fill:#fefefe;fill-opacity:1;stroke:#fefefe;stroke-width:0.05;stroke-linecap:round;stroke-linejoin:round;stroke-miterlimit:4;stroke-opacity:1;stroke-dasharray:none"
               d="m 419.15964,25.328508 2.47487,-3.756505 -1.94454,-1.878253 1.32583,-1.325825 5.50217,5.480078 -1.32582,1.325825 -1.94455,-1.922447 -3.60182,2.496971 z"
               id="path4369"
               inkscape:connector-curvature="0" />
          </g>
          <path
             sodipodi:nodetypes="cccccccc"
             inkscape:connector-curvature="0"
             id="path4406"
             d="m 231.28153,348.76772 7.77817,7.77818 10.20886,-10.36353 c -0.71618,-0.95395 -1.69442,-1.73319 -2.76214,-2.45278 -0.35085,-0.38789 -1.12749,-0.83661 -1.87825,-1.28163 -0.59142,-0.68443 -1.39065,-1.08207 -2.54116,-1.41421 -0.2887,-0.35398 -1.34827,-0.4777 -2.45278,-0.7734 z"
             style="fill:#ffffff;fill-opacity:1;stroke:#ffffff;stroke-width:0.05;stroke-linecap:round;stroke-linejoin:round;stroke-miterlimit:4;stroke-opacity:1;stroke-dasharray:none" />
        </g>
      </g>
    </g>
  </g>
</svg>

<svg xmlns="http://www.w3.org/2000/svg" xmlns:xlink="http://www.w3.org/1999/xlink" width="80" zoomAndPan="magnify" viewBox="0 0 60 67.92" height="80" preserveAspectRatio="xMidYMid meet" version="1.0"><path stroke-linecap="round" transform="matrix(1.417976, 0, 0, 1.39479, -0.590064, -10.787873)" fill-opacity="1" fill="#c09328" fill-rule="nonzero" stroke-linejoin="round" d="M 39.936603 29.287828 C 39.936603 39.627645 31.716257 48.007042 21.573055 48.007042 C 11.429853 48.007042 3.209506 39.627645 3.209506 29.287828 C 3.209506 18.948011 11.429853 10.568614 21.573055 10.568614 C 31.716257 10.568614 39.936603 18.948011 39.936603 29.287828 Z M 39.936603 29.287828 " stroke="#c09328" stroke-width="0.4" stroke-opacity="1" stroke-miterlimit="4"/><path stroke-linecap="round" transform="matrix(1.253349, 0, 0, 1.256794, -500.324357, -5.503149)" fill-opacity="1" fill="#ffffff" fill-rule="nonzero" stroke-linejoin="round" d="M 435.062693 39.888845 C 434.947377 39.596683 434.88816 39.276548 434.719861 39.015467 L 434.21808 38.543035 L 433.373468 37.980467 L 432.344974 37.576413 L 430.873915 37.169251 L 429.655304 36.948576 L 428.031529 36.824251 L 427.031085 36.886414 L 425.812474 37.324657 L 424.438031 37.825062 L 423.375254 38.011548 L 421.686029 38.042629 L 420.405086 37.887224 L 419.061809 37.669657 L 417.7497 37.480062 L 416.593422 37.386819 L 415.21898 37.231414 L 413.875703 37.293576 L 413.751037 36.917495 L 413.564038 36.075198 L 413.657538 35.450468 L 413.81337 35.229792 L 414.751482 34.636144 L 415.624144 33.824928 L 416.032425 33.23128 L 416.063592 32.420064 L 416.001259 31.636821 L 415.873476 31.074253 L 415.686477 30.573848 L 415.686477 30.076551 L 416.032425 29.731551 L 416.593422 29.513983 L 417.157536 29.200065 L 417.593867 28.761821 L 417.967865 28.168173 L 418.154864 27.543443 L 418.376146 27.136281 L 418.313813 26.79439 L 417.874366 26.387228 L 417.469201 26.387228 L 417.157536 26.573714 L 416.905087 27.1052 L 416.686922 27.698849 L 416.43759 28.106011 L 415.84231 28.388849 L 415.156647 28.668578 L 414.686032 29.168984 L 414.374367 29.793713 L 414.343201 30.449524 L 414.5302 31.232767 L 414.686032 32.012902 L 414.813815 32.60655 L 414.686032 32.95155 L 414.125035 33.386685 L 413.657538 33.762766 L 413.12459 34.138847 L 412.750592 34.449658 L 412.438927 35.012225 L 412.248812 35.85763 L 412.311145 36.762089 L 412.438927 37.262495 L 412.532427 37.731819 L 411.812481 38.011548 L 411.092534 38.574116 L 410.718536 39.136683 L 410.531537 39.919926 L 410.749703 40.762223 L 411.469649 41.576547 L 412.563593 42.57425 L 413.626371 43.167898 L 414.969647 43.668303 L 416.250591 43.951141 L 418.282647 44.168709 L 420.467419 44.293033 L 423.001256 44.513709 L 425.248361 44.451546 L 427.436249 44.261952 L 429.15664 43.951141 L 430.749249 43.512898 L 432.407307 42.794925 L 433.657083 42.073844 L 434.560912 41.231547 L 435.00036 40.544656 L 435.065809 39.904386 " stroke="#ffffff" stroke-width="0.05" stroke-opacity="1" stroke-miterlimit="4"/><path stroke-linecap="round" transform="matrix(1.253349, 0, 0, 1.256794, -500.324357, -5.503149)" fill-opacity="1" fill="#c09328" fill-rule="nonzero" stroke-linejoin="round" d="M 428.795109 42.421952 L 429.633488 42.266547 L 430.275518 42.089385 L 431.104547 41.747493 L 431.656194 41.449115 L 432.076942 41.19425 L 432.416657 40.939385 L 432.803121 40.597494 L 433.09297 40.199656 L 433.323602 39.724115 L 433.410868 39.33871 L 433.423335 39.071413 L 433.410868 38.962629 L 433.579167 39.183305 L 433.700717 39.481683 L 433.74435 39.724115 L 433.710066 40.013169 L 433.653967 40.233845 L 433.544884 40.454521 L 433.379702 40.709385 L 433.202052 40.917629 L 432.881037 41.160061 L 432.550673 41.427358 L 432.198491 41.657358 L 431.73411 41.955736 L 431.444262 42.123574 L 431.126363 42.266547 L 430.771065 42.375331 L 430.418884 42.496547 L 430.085402 42.530736 L 429.711404 42.552493 L 429.334289 42.521412 L 429.091191 42.496547 Z M 428.795109 42.421952 " stroke="#c09328" stroke-width="0.05" stroke-opacity="1" stroke-miterlimit="4"/><path stroke-linecap="round" transform="matrix(1.253349, 0, 0, 1.256794, -500.324357, -5.503149)" fill-opacity="1" fill="#fefefe" fill-rule="nonzero" stroke-linejoin="round" d="M 419.158426 25.327363 L 421.633046 21.57277 L 419.691373 19.692365 L 421.015949 18.368311 L 426.516837 23.847904 L 425.192261 25.175066 L 423.247471 23.251147 L 419.644623 25.746958 Z M 419.158426 25.327363 " stroke="#fefefe" stroke-width="0.05" stroke-opacity="1" stroke-miterlimit="4"/><path stroke-linecap="round" transform="matrix(1.253349, 0, 0, 1.256794, -263.102744, -422.941544)" fill-opacity="1" fill="#ffffff" fill-rule="nonzero" stroke-linejoin="round" d="M 231.281337 348.767032 L 239.060497 356.546624 L 249.267527 346.181086 C 248.553814 345.226897 247.575186 344.449871 246.506175 343.72879 C 246.15711 343.340276 245.377947 342.892709 244.626834 342.44825 C 244.037787 341.764466 243.236808 341.366628 242.086764 341.034061 C 241.796916 340.679737 240.737255 340.555412 239.63396 340.260142 Z M 231.281337 348.767032 " stroke="#ffffff" stroke-width="0.05" stroke-opacity="1" stroke-miterlimit="4"/></svg>
